packages/kaspersky-hexa-ui-icons/src/iconsSVGs/48/Contacts.svg

<svg xmlns="http://www.w3.org/2000/svg" width="48" height="48" fill="none" viewBox="0 0 48 48"><path fill="currentColor" fill-rule="evenodd" d="M4 1v4H3v2h1v4H3v2h1v4H3v2h1v4H3v2h1v4H3v2h1v4H3v2h1v4H3v2h1v4h37v-4h3V1zm2 42h1v-2H6v-4h1v-2H6v-4h1v-2H6v-4h1v-2H6v-4h1v-2H6v-4h1v-2H6V7h1V5H6V3h3v42H6zm33 2H11V3h28zm3-4h-1v-6h1zm0-8h-1v-6h1zm0-8h-1v-6h1zm0-8h-1v-6h1zm-1-8V3h1v6zM28 31v2h-6v-2zm-10 4h14v2H18zm15-8v-2.0332c.0431-1.812-1.1227-3.4321-2.8545-3.9668l-1.3408-.3701a2.144 2.144 0 0 1-1.0923-.9827A7.38 7.38 0 0 0 29 15.2002 3.8452 3.8452 0 0 0 25 11a3.8453 3.8453 0 0 0-4 4.2002 7.358 7.358 0 0 0 1.3018 4.4644 2.218 2.218 0 0 1-1.1075.9653L19.8545 21c-1.7318.5347-2.8976 2.1548-2.8545 3.9668V27zm-8-14c.9121 0 2 .3818 2 2.2002C27 16.6113 26.5791 19 25 19s-2-2.3887-2-3.7998C23 13.3818 24.0879 13 25 13m-6 11.9668a2.051 2.051 0 0 1 1.3877-2.0391l1.3398-.3701a4.085 4.085 0 0 0 2.1944-1.7297 3.458 3.458 0 0 0 2.1767-.0073 4.012 4.012 0 0 0 2.1739 1.737l1.3398.3701A2.051 2.051 0 0 1 31 24.9668L19 25z" clip-rule="evenodd"/></svg>

<svg width="48" height="48" viewBox="0 0 48 48" fill="none" xmlns="http://www.w3.org/2000/svg">
<path fill-rule="evenodd" clip-rule="evenodd" d="M4 1V5H3V7H4V11H3V13H4V17H3V19H4V23H3V25H4V29H3V31H4V35H3V37H4V41H3V43H4V47H41V43H44V1H4ZM6 43H7V41H6V37H7V35H6V31H7V29H6V25H7V23H6V19H7V17H6V13H7V11H6V7H7V5H6V3H9V45H6V43ZM39 45H11V3H39V45ZM42 41H41V35H42V41ZM42 33H41V27H42V33ZM42 25H41V19H42V25ZM42 17H41V11H42V17ZM41 9V3H42V9H41ZM28 31V33H22V31H28ZM18 35H32V37H18V35ZM33 27V24.9668C33.0431 23.1548 31.8773 21.5347 30.1455 21L28.8047 20.6299C28.3362 20.4412 27.9494 20.0932 27.7124 19.6472C28.6076 18.3414 29.059 16.7823 29 15.2002C29.1038 14.0929 28.723 12.9949 27.9561 12.1896C27.1891 11.3842 26.111 10.9504 25 11C23.889 10.9504 22.8109 11.3842 22.0439 12.1896C21.277 12.9949 20.8962 14.0929 21 15.2002C20.9399 16.7899 21.3966 18.3563 22.3018 19.6646C22.053 20.1028 21.6624 20.4433 21.1943 20.6299L19.8545 21C18.1227 21.5347 16.9569 23.1548 17 24.9668V27H33ZM25 13C25.9121 13 27 13.3818 27 15.2002C27 16.6113 26.5791 19 25 19C23.4209 19 23 16.6113 23 15.2002C23 13.3818 24.0879 13 25 13ZM19 24.9668C18.9564 24.0538 19.5224 23.2222 20.3877 22.9277L21.7275 22.5576C22.6396 22.2569 23.4165 21.6445 23.9219 20.8279C24.6293 21.0599 25.3928 21.0573 26.0986 20.8206C26.5928 21.6404 27.3638 22.2565 28.2725 22.5576L29.6123 22.9277C30.4776 23.2222 31.0436 24.0538 31 24.9668L19 25V24.9668Z"  fill="currentColor"/>
</svg>
